mobile/apps/auth/assets/custom-icons/icons/bybit.svg

<svg xmlns="http://www.w3.org/2000/svg" viewBox="0 0 500 500"><path fill="#F6A500" d="M356.3 295.4V167h25.9v128.4h-25.9Z"/><g fill="#fff" style="mix-blend-mode:difference"><path d="M55.4 333.5H0V205.1h53.2c25.8 0 40.8 14.1 40.8 36.1 0 14.3-9.7 23.5-16.4 26.5 8 3.7 18.2 11.8 18.2 28.9 0 24-16.9 36.9-40.4 36.9Zm-4.3-106H25.8v29.6h25.3c10.9 0 17.1-6 17.1-14.8s-6.2-14.8-17.1-14.8Zm1.6 52.1H25.8v31.6h26.9c11.7 0 17.3-7.2 17.3-15.9 0-8.6-5.6-15.7-17.3-15.7ZM174.7 280.9v52.6H149v-52.6l-39.7-75.8h28l24.7 51.8 24.3-51.8h28.1l-39.7 75.8ZM287.6 333.5h-55.3V205.1h53.1c25.8 0 40.9 14.1 40.9 36.1 0 14.3-9.7 23.5-16.4 26.5 8 3.7 18.2 11.8 18.2 28.9 0 24-16.9 36.9-40.5 36.9Zm-4.3-106h-25.2v29.6h25.2c11 0 17.1-6 17.1-14.8s-6.1-14.8-17.1-14.8Zm1.7 52.1h-26.9v31.6H285c11.7 0 17.3-7.2 17.3-15.9 0-8.6-5.6-15.7-17.3-15.7ZM465.4 227.5v106h-25.8v-106H405v-22.4h95v22.4h-34.6Z"/></g></svg>

<svg width="500" height="500" viewBox="0 0 500 500" xmlns="http://www.w3.org/2000/svg">
  <path d="M356.3 295.4V167H382.2V295.4H356.3Z" fill="#F6A500"/>
  <g style="mix-blend-mode:difference" fill="white">
    <path d="M55.4 333.5H0V205.1H53.2C79 205.1 94 219.2 94 241.2C94 255.5 84.3 264.7 77.6 267.7C85.6 271.4 95.8 279.5 95.8 296.6C95.8 320.6 78.9 333.5 55.4 333.5ZM51.1 227.5H25.8V257.1H51.1C62 257.1 68.2 251.1 68.2 242.3C68.2 233.5 62 227.5 51.1 227.5ZM52.7 279.6H25.8V311.2H52.7C64.4 311.2 70 304 70 295.3C70 286.7 64.4 279.6 52.7 279.6Z"/>
    <path d="M174.7 280.9V333.5H149V280.9L109.3 205.1H137.3L162 256.9L186.3 205.1H214.4L174.7 280.9Z"/>
    <path d="M287.6 333.5H232.3V205.1H285.4C311.2 205.1 326.3 219.2 326.3 241.2C326.3 255.5 316.6 264.7 309.9 267.7C317.9 271.4 328.1 279.5 328.1 296.6C328.1 320.6 311.2 333.5 287.6 333.5ZM283.3 227.5H258.1V257.1H283.3C294.3 257.1 300.4 251.1 300.4 242.3C300.4 233.5 294.3 227.5 283.3 227.5ZM285 279.6H258.1V311.2H285C296.7 311.2 302.3 304 302.3 295.3C302.3 286.7 296.7 279.6 285 279.6Z"/>
    <path d="M465.4 227.5V333.5H439.6V227.5H405V205.1H500V227.5H465.4Z"/>
  </g>
</svg>
